src/assets/outline/ReceiptItem.svg

<svg width="24" height="24" viewBox="0 0 24 24"  xmlns="http://www.w3.org/2000/svg">
<path d="M19.42 11.75H16C15.59 11.75 15.25 11.41 15.25 11V4.01C15.25 3.27 15.54 2.58 16.06 2.06C16.58 1.54 17.27 1.25 18.01 1.25H18.02C19.27 1.26 20.45 1.75 21.35 2.64C22.25 3.55 22.74 4.75 22.74 6V8.42C22.75 10.41 21.41 11.75 19.42 11.75ZM16.75 10.25H19.42C20.58 10.25 21.25 9.58 21.25 8.42V6C21.25 5.14 20.91 4.32 20.3 3.7C19.69 3.1 18.87 2.76 18.02 2.75C18.02 2.75 18.02 2.75 18.01 2.75C17.68 2.75 17.36 2.88 17.12 3.12C16.88 3.36 16.75 3.67 16.75 4.01V10.25Z" />
<path d="M9 23.33C8.53 23.33 8.09 23.15 7.76 22.81L6.1 21.14C6.01 21.05 5.87 21.04 5.77 21.12L4.05 22.4C3.52 22.8 2.82 22.87 2.22 22.57C1.62 22.27 1.25 21.67 1.25 21V6C1.25 2.98 2.98 1.25 6 1.25H18C18.41 1.25 18.75 1.59 18.75 2C18.75 2.41 18.41 2.75 18 2.75C17.31 2.75 16.75 3.31 16.75 4V21C16.75 21.67 16.38 22.27 15.78 22.57C15.18 22.87 14.48 22.81 13.95 22.41L12.24 21.13C12.14 21.05 12 21.07 11.92 21.15L10.24 22.83C9.91 23.15 9.47 23.33 9 23.33ZM5.91 19.57C6.37 19.57 6.82 19.74 7.16 20.09L8.82 21.76C8.88 21.82 8.96 21.83 9 21.83C9.04 21.83 9.12 21.82 9.18 21.76L10.86 20.08C11.48 19.46 12.46 19.4 13.15 19.93L14.85 21.2C14.96 21.28 15.06 21.25 15.11 21.22C15.16 21.19 15.25 21.13 15.25 21V4C15.25 3.55 15.36 3.12 15.55 2.75H6C3.78 2.75 2.75 3.78 2.75 6V21C2.75 21.14 2.84 21.2 2.89 21.23C2.95 21.26 3.05 21.28 3.15 21.2L4.86 19.92C5.17 19.69 5.54 19.57 5.91 19.57Z" />
<path d="M12 13.76H9C8.59 13.76 8.25 13.42 8.25 13.01C8.25 12.6 8.59 12.26 9 12.26H12C12.41 12.26 12.75 12.6 12.75 13.01C12.75 13.42 12.41 13.76 12 13.76Z" />
<path d="M12 9.76001H9C8.59 9.76001 8.25 9.42001 8.25 9.01001C8.25 8.60001 8.59 8.26001 9 8.26001H12C12.41 8.26001 12.75 8.60001 12.75 9.01001C12.75 9.42001 12.41 9.76001 12 9.76001Z" />
<path d="M5.97021 10.01C5.42021 10.01 4.97021 9.56001 4.97021 9.01001C4.97021 8.46001 5.42021 8.01001 5.97021 8.01001C6.52021 8.01001 6.97021 8.46001 6.97021 9.01001C6.97021 9.56001 6.52021 10.01 5.97021 10.01Z" />
<path d="M5.97021 14.01C5.42021 14.01 4.97021 13.56 4.97021 13.01C4.97021 12.46 5.42021 12.01 5.97021 12.01C6.52021 12.01 6.97021 12.46 6.97021 13.01C6.97021 13.56 6.52021 14.01 5.97021 14.01Z" />
</svg>

<?xml version="1.0" encoding="UTF-8"?>
<svg width="24" height="24" viewBox="0 0 24 24" xmlns="http://www.w3.org/2000/svg">
 <path d="m19.42 11.75h-3.42c-0.41 0-0.75-0.34-0.75-0.75v-6.99c0-0.74 0.29-1.43 0.81-1.95s1.21-0.81 1.95-0.81h0.01c1.25 0.01 2.43 0.5 3.33 1.39 0.9 0.91 1.39 2.11 1.39 3.36v2.42c0.01 1.99-1.33 3.33-3.32 3.33zm-2.67-1.5h2.67c1.16 0 1.83-0.67 1.83-1.83v-2.42c0-0.86-0.34-1.68-0.95-2.3-0.61-0.6-1.43-0.94-2.28-0.95h-0.01c-0.33 0-0.65 0.13-0.89 0.37s-0.37 0.55-0.37 0.89v6.24z"/>
 <path d="m9 23.33c-0.47 0-0.91-0.18-1.24-0.52l-1.66-1.67c-0.09-0.09-0.23-0.1-0.33-0.02l-1.72 1.28c-0.53 0.4-1.23 0.47-1.83 0.17s-0.97-0.9-0.97-1.57v-15c0-3.02 1.73-4.75 4.75-4.75h12c0.41 0 0.75 0.34 0.75 0.75s-0.34 0.75-0.75 0.75c-0.69 0-1.25 0.56-1.25 1.25v17c0 0.67-0.37 1.27-0.97 1.57s-1.3 0.24-1.83-0.16l-1.71-1.28c-0.1-0.08-0.24-0.06-0.32 0.02l-1.68 1.68c-0.33 0.32-0.77 0.5-1.24 0.5zm-3.09-3.76c0.46 0 0.91 0.17 1.25 0.52l1.66 1.67c0.06 0.06 0.14 0.07 0.18 0.07s0.12-0.01 0.18-0.07l1.68-1.68c0.62-0.62 1.6-0.68 2.29-0.15l1.7 1.27c0.11 0.08 0.21 0.05 0.26 0.02s0.14-0.09 0.14-0.22v-17c0-0.45 0.11-0.88 0.3-1.25h-9.55c-2.22 0-3.25 1.03-3.25 3.25v15c0 0.14 0.09 0.2 0.14 0.23 0.06 0.03 0.16 0.05 0.26-0.03l1.71-1.28c0.31-0.23 0.68-0.35 1.05-0.35z"/>
 <path d="m12 13.76h-3c-0.41 0-0.75-0.34-0.75-0.75s0.34-0.75 0.75-0.75h3c0.41 0 0.75 0.34 0.75 0.75s-0.34 0.75-0.75 0.75z"/>
 <path d="m12 9.76h-3c-0.41 0-0.75-0.34-0.75-0.75s0.34-0.75 0.75-0.75h3c0.41 0 0.75 0.34 0.75 0.75s-0.34 0.75-0.75 0.75z"/>
 <path d="m5.9702 10.01c-0.55 0-1-0.44999-1-0.99999s0.45-1 1-1 1 0.45 1 1-0.45 0.99999-1 0.99999z"/>
 <path d="m5.9702 14.01c-0.55 0-1-0.45-1-1s0.45-1 1-1 1 0.45 1 1-0.45 1-1 1z"/>
</svg>
